X:1
T:Title
%%score 1 { 2 | 3 }
L:1/8
Q:1/4=115
M:4/4
K:F
V:1 treble nm="Grand Piano, Soprano"
V:2 treble nm="Choir Pad, From the Cyber Hymnal™"
V:3 bass 
V:1
 [Ac]2 [_A=B]2 [_Bd]2 [=Ac]2- | [Ac]2 [FA]2 [FB]4 | [FB]2 [FA]4 z2 | [Ac]2 [_A=B]2 [_Bd]2 [=Ac]2- | %4
w: By~A.~F.~Myers * * *||||
 [Ac]2 [FA]2 [F=B]2 [FB]2 | [Fd]2 [Ec]4 c2 | [Af]2 [Fe]2 [Fd]2 [Fc]2- | [Fc]2 [Fc]2 [Fd]2 [Ff]2 | %8
w: ||||
 [Fd]2 [Fc]4 [Fc]2 | [Fd]2 [Fc]2 [EB]2 [FA]2- | [FA]2 [DG]2 [Ec]4 | [CE]2 [CF]6- | [CF]2 z2 z4 |] %13
w: |||||
V:2
 F2 F2 F2 F2- | F2 C2 D4 | ^C2 =C4 z2 | F2 F2 F2 F2- | F2 C2 G,2 D2 | =B,2 C4 C2 | C2 C2 B,2 C2- | %7
 C2[K:bass] A,2 B,2 D2 | B,2 A,4 A,2 | B,2[K:treble] C2 C2 C2- | C2 B,2[K:bass] G,4 | B,2 A,6- | %12
 A,2 z2 z4 |] %13
V:3
 F,2 F,2 F,2 F,2- | F,2 F,2 F,4 | F,2 F,4 z2 | F,2 F,2 F,2 F,2- | F,2 F,2 z2 G,2 | G,2 C,4 z2 | %6
 F,2 A,2 z2 A,2- | A,2 F,2 B,,2 B,,2 | B,,2 F,4 F,2 | z2 A,2 G,2 F,2- | F,2 B,,2 C,4 | %11
 C,2 [F,,F,]6- | [F,,F,]2 z2 z4 |] %13

